X:18421
T:Waltz of the Rock - (Bon Echo Rock)
R:waltz
C:Bruce Osborne  --  July 1 1997
M:3/4
L:1/8
K:A
ED|C2E2AB|c2B2A2|(3BcBA2F2|E3 FED|!
C2E2AB|c2B2A2|e2c2A2|B4ED|!
C2E2AB|c2B2A2|F2[F2d2][A2f2]|[A4e4]cd|!
e2c2A2|d2B2G2|A3 GAB|A4:|!
|:ED|CEA2AB|c2B2A2|F2[F2d2][A2f2]|[A4e4]cd|!
e2c2A2|f2e2c2|c2B2A2|B4ED|!
CEA2ED|CEA2c2|[F2d2][F2d2][A2f2]|[A4e4]cd|!
e2c2A2|d2B2G2|A3 GAB|A4:|!


